resources/haticons/SVG/border_style.svg

<!-- Generated by IcoMoon.io -->
<svg version="1.1" xmlns="http://www.w3.org/2000/svg" width="24" height="24" viewBox="0 0 24 24">
<title>border_style</title>
<path d="M18.984 9v-2.016h2.016v2.016h-2.016zM3 3h18v2.016h-15.984v15.984h-2.016v-18zM18.984 12.984v-1.969h2.016v1.969h-2.016zM18.984 17.016v-2.016h2.016v2.016h-2.016zM11.016 21v-2.016h1.969v2.016h-1.969zM6.984 21v-2.016h2.016v2.016h-2.016zM18.984 21v-2.016h2.016v2.016h-2.016zM15 21v-2.016h2.016v2.016h-2.016z"></path>
</svg>

<svg xmlns="http://www.w3.org/2000/svg" width="24" height="24"><path d="M18.984 9V6.984H21V9h-2.016zM3 3h18v2.016H5.016V21H3V3zm15.984 9.984v-1.969H21v1.969h-2.016zm0 4.032V15H21v2.016h-2.016zM11.016 21v-2.016h1.969V21h-1.969zm-4.032 0v-2.016H9V21H6.984zm12 0v-2.016H21V21h-2.016zM15 21v-2.016h2.016V21H15z"/></svg>
